X: 35814
T: Salterello
R: jig
M: 6/8
K: Cmajor
|:cBA GAB|cdB c2 G|cBA GAB|cdB c2 G|
cgf e2 d|cgf e2 d|1 cBc A2 e|Aee A3:|2 cBc ABc|ddB c3||
cBc g2 A|ggc g2 g|cBc g2 e|fed e2 d|
cBc A2 B|GAB c2 G|ABc ABG|def c3|
|:ABc ABG|cBc d2 e|ABc ABG|cBc d2 e|
cgf e2 d|cgf e2 d|1 cBc A2 e|Aee A3:|2 cBc ABc|ddB c3||

